X:1
T:Ring, Ring the Bells, the Joyful Bells
T:J. J. Atack, before 1895
T:Ring, Ring the Bells, the Joyful Bells
T:Public Domain
T:Public Domain
C:J. J. Atack, before 1895
Z:Public Domain
%%score ( 1 2 ) ( 3 4 )
L:1/8
M:4/4
K:C
V:1 treble 
V:2 treble 
V:3 bass 
V:4 bass 
V:1
 c2 | B2 A2 G2 F2 | E2 D2 C2 [EG]2 | (AB) [Gc]2 [Fd]2 [Ec]2 | [DB]6 c2 | A2 F2 D2 (GF) | %6
w: 1.~Ring,|the bells, the joy-|ry Christ- mas morn;|lo- * dious mu- sic|The day|Christ was born. Sweet- *|
w: 2.~Ring,|the bells, the Christ-|their joy- ous chime|earth * the chor- us|Of an-|song sub- lime. The *|
w: 3.~Ring,|the bells, the Christ-|ic of the day|whom * their mu- sic|Shall all|na- tions sway; Shall *|
 [CE]2 [B,G]2 [Cc]2 [EG]2 | (AB) [Gc]2 [GB]2 [^FA]2 | G6 (GA) | [FB]2 [Ec]2 [Dd]2 (BG) | %10
w: vale and glen; Hark!|how * their mu- sic|With “Peace *|good will to men!” *|
w: ev- er new, Falls|on * the heart a-|Re- fresh- *|the ear- ly dew, *|
w: rule each heart, Shall|bid * all sor- rows|And give *|the bet- ter part *|
 [Cc]2 [CE]2 [DG]2 G2 | F2 E2 D2 C2 | G6 (GF) | [CE]2 [B,G]2 [Cc]2 [Ec]2 | (dc)(BA) [FG]2 [FG]2 | %15
w: mer- ry Christ- mas|Ring, ring the bells,|The bells, *|ry, mer- ry Christ-|mas * bells, * Ring, ring|
w: the soft sum- mer|||||
w: ev- er- last- ing|||||
 ([EG][FA])([FB][Gc]) [Fd]2 [DB]2 | [Ec]6 ||"^Refrain" c2 | B2 A2 G2 F2 | E2 D2 C2 F2 | %20
w: ry * Christ- * mas bells.|||||
w: |||||
w: |||||
 E2 [EG]2 [FA][FA][^FA][FA] | [EG]2 [FB]2 [Ec]4 | [Ec]4 [Ec][Fd][Ge][Fd] | (EFGA) (DE F2) | %24
w: ||||
w: ||||
w: ||||
 [Ec]6 |] %25
w: |
w: |
w: |
V:2
 c2 | B2 A2 G2 F2 | E2 D2 C2 x2 | F2 x6 | x6 c2 | A2 F2 D2 D2 | x8 | ^F2 x6 | G6 G2 | x6 D2 | %10
w: ring|ful bells, This mer-|Their sweet, me-|tells|that|ly they sound o’er||swells|on earth,|O|
w: ring|mas bells, For in|Once more on|swells|gel|sweet old sto- ry,||gain,|ing as|Or|
w: ring|mas bells, Pro- phet-|When He of|tells|the|bless and fill and||cease,|His own|Of|
 x6 G2 | F2 E2 D2 C2 | G6 D2 | x8 | F2 F2 x4 | x8 | x6 || c2 | B2 A2 G2 F2 | E2 D2 C2 F2 | E2 x6 | %21
w: bells!|the joy- ful bells,|the mer-||the mer-|||||||
w: rain.|||||||||||
w: peace.|||||||||||
 x8 | x8 | c4 B4 | x6 |] %25
w: ||||
w: ||||
w: ||||
V:3
 C2 | B,2 A,2 G,2 F,2 | E,2 D,2 C,2 [C,C]2 | [F,C]2 [E,C]2 [B,,G,]2 [C,G,]2 | G,6 C2 | %5
w: ~|~ ~ ~ ~|~ ~ ~ ~|~ ~ ~ ~|~ ~|
 A,2 F,2 D,2 [B,,G,]2 | [C,G,]2 [D,G,]2 [E,G,]2 [C,C]2 | [F,C]2 [E,C]2 [D,D]2 [D,C]2 | %8
w: ~ ~ ~ ~|~ ~ ~ ~|~ ~ ~ ~|
 [G,,B,]6 (B,C) | [G,D]2 [G,C]2 [G,B,]2 [F,B,]2 | [E,C]2 [C,C]2 [G,B,]2 G,2 | F,2 E,2 D,2 C,2 | %12
w: ~ ~ *|~ ~ ~ ~|~ ~ ~ ~|~ ~ ~ ~|
 G,6 [B,,G,]2 | [C,G,]2 [D,G,]2 [E,G,]2 [C,C]2 | (B,C)(DC) [G,B,]2 [G,B,]2 | %15
w: ~ ~|~ ~ ~ ~|~ * ~ * ~ ~|
 [C,C]2 (D,E,) [F,A,]2 G,2 | [C,G,]6 || z2 | z2 C2 B,2 A,2 | G,2 F,2 E,2 D,2 | %20
w: the mer- * ry, mer-|ry||Christ- mas bells.||
 C,2 [C,C]2 [F,C][F,C][D,D][D,D] | [G,D]2 [G,,D]2 [C,C]4 | [C,G,]2 [C,G,]2 [C,G,]2 [C,G,]2 | %23
w: |||
 C,D,E,F, G,2 G,,2 | [C,G,]6 |] %25
w: ||
V:4
 C2 | B,2 A,2 G,2 F,2 | E,2 D,2 C,2 x2 | x8 | G,6 C2 | A,2 F,2 D,2 x2 | x8 | x8 | x6 G,2 | x8 | %10
w: ~|~ ~ ~ ~|~ ~ ~||~ ~|~ ~ ~|||~||
 x6 G,2 | F,2 E,2 D,2 C,2 | G,6 x2 | x8 | G,2 G,2 x4 | x2 G,2 x G,2 x | x6 || x2 | x2 C2 B,2 A,2 | %19
w: ~|~ ~ ~ ~|~||~ Ring|ry, mer-||||
 G,2 F,2 E,2 D,2 | C,2 x6 | x8 | x8 | C4 G,4 | x6 |] %25
w: ||||||

